!!!!SEGMENT: pl-kj--bj-muz-1603-iii-2--004_zelenski-wladyslaw--sechs-charakterstucke-op-17-no-4-canon.krn
!!!cenid: 18xx:3683
!!!COM: Żeleński, Władysław
!!!COM-rismid: pe41024455
!!!CDT:
!!!CNT:
!!!GTL: Sechs Charakterstücke op. 17
!!!OTL: No. 4 Canon
!!!PDT: 1872
!!!AGN:
!!!SMS-siglum: PL-Kj
!!!SMS-shelfmark: BJ Muz. 1603 III 2
!!!SMS-shelfwork: 004 G
!!!SMS-variant:
!!!SMS-altvar:
!!!NIFC-rismid:
!!!URL-scan: https://polona.pl/item/sechs-charakterstucke-fur-pianoforte-op-17-h-2,MTIzNzQyODQ2/0/#info:metadata
!!!ONB-nifc:
!!!AIN: 2 piano
!!!key: A
**kern	**dynam	**kern	**dynam
*part2	*part2	*part1	*part1
*staff2	*	*staff1	*
*I"[Pianoforte]	*	*I"[Pianoforte]	*
*I'pf	*	*I'pf	*
*ICklav	*	*ICklav	*
*Ipiano	*	*Ipiano	*
*clefF4	*	*clefG2	*
*A:	*	*A:	*
*k[f#c#g#]	*	*k[f#c#g#]	*
*M3/4	*	*M3/4	*
=1	=1	=1	=1
*	*	*^	*
!	!	!LO:TX:a:B:t=Lento e molto espressivo.	!	!
!	!	!LO:TX:a:i:t=ben legato	!	!
*	*	*	*Xtuplet	*
[2.AA/	.	4r	12r	p
.	.	.	12A\L	.
.	.	.	12c#\J	.
!	!	!	!	!LO:HP:a
.	.	(4e/	12e\L	<
.	.	.	12A\	.
.	.	.	12c#\J	.
.	.	4f#/	12f#\L	.
.	.	.	12A\	.
.	.	.	12c#\J	.
=2	=2	=2	=2	=2
2.AA/]	.	4a/	12a\L	.
.	.	.	12B\	.
.	.	.	12d\J	.
.	.	4g#/	12g#\L	.
.	.	.	12B\	.
.	.	.	12d\J	.
.	.	4f#/	12f#\L	[
.	.	.	12A\	.
.	.	.	12d\J	.
=3	=3	=3	=3	=3
*^	*	*	*	*
!	!	!	!	!	!LO:HP:a
4r	[2.AA\	.	4fn/	12fn\L	>
.	.	.	.	12G#\	.
.	.	.	.	12d\J	.
(<4E/	.	.	4e/)	12e\L	]
.	.	.	.	(>12A\	<
.	.	.	.	12c#\J)	.
4F#/	.	.	4r	12r	.
.	.	.	.	(>12A\L	.
.	.	.	.	12d\J)	.
=4	=4	=4	=4	=4	=4
4A/	2.AA\]	.	2.r	12r	.
.	.	.	.	(>12c#\L	.
.	.	.	.	12d\J)	.
4G#/	.	.	.	12r	.
.	.	.	.	(>12B\L	.
.	.	.	.	12d\J)	.
4F#/	.	.	.	12r	.
.	.	.	.	(>12A\L	[
.	.	.	.	12d\J)	.
!!LO:LB:g=original	!	!	!	!
=5	=5	=5	=5	=5	=5
4Fn/	[2.AA\	.	4r	12r	>
.	.	.	.	12G#\L	.
.	.	.	.	12d\J	.
!	!	!	!	!	!LO:HP:a
4E/)	.	.	(4a/	12a\L	] <
.	.	.	.	12A\	.
.	.	.	.	12c#\J	.
4r	.	.	4b/	12b\L	.
.	.	.	.	12d\	.
.	.	.	.	12g#\J	.
*v	*v	*	*	*	*
=6	=6	=6	=6	=6
2.AA\_<	.	4dd/	12dd\L	.
.	.	.	12f#\	.
.	.	.	12a\J	.
.	.	4cc#/	12cc#\L	.
.	.	.	12e\	.
.	.	.	12a\J	.
.	.	4b/	12b\L	[
.	.	.	12d\	.
.	.	.	12g#\J	.
=7	=7	=7	=7	=7
*^	*	*	*	*
!	!	!	!	!	!LO:HP:a
4r	4AA\]	.	4b/	12b\L	>
.	.	.	.	12d\	.
.	.	.	.	12g#\J	.
(4A/	4r	.	4a/)	12a\L	]
.	.	.	.	(>12c#\	<
.	.	.	.	12e\J)	.
4B/	4r	.	4r	12r	.
.	.	.	.	(>12d\L	.
.	.	.	.	12a\J)	.
=8	=8	=8	=8	=8	=8
4d/	4r	.	2.r	12r	.
.	.	.	.	(>12f#\L	.
.	.	.	.	12a\J)	.
4c#/	4r	.	.	12r	.
.	.	.	.	(>12e\L	.
.	.	.	.	12a\J)	.
4B/	4E#X\	.	.	12r	.
.	.	.	.	(>12d\L	[
.	.	.	.	12g#\J)	.
=9	=9	=9	=9	=9	=9
4B/	2.F#\	.	4r	12r	>
.	.	.	.	12d\L	.
.	.	.	.	12g#\J	.
!	!	!	!	!	!LO:HP:a
4A/)	.	.	(4cc#/	12cc#\L	] <
.	.	.	.	12c#\	.
.	.	.	.	12a\J	.
4r	.	.	4dd#X/	12dd#\L	.
.	.	.	.	12f#\	.
.	.	.	.	12a\J	.
!!LO:LB:g=original	!	!	!	!
=10	=10	=10	=10	=10	=10
2.r	2C#\	.	4ff#/	12ff#\L	[
.	.	.	.	12a\	.
.	.	.	.	12dd#X\J	.
.	.	.	4ee/	12ee\L	.
.	.	.	.	12b\	.
.	.	.	.	12cc#\J	.
!	!	!	!LO:TX:a:i:t=cresc.poco a poco	!	!
.	4BB#X\	.	4dd#/)	12dd#\L	.
.	.	.	.	12f#\	.
.	.	.	.	12a\J	.
=11	=11	=11	=11	=11	=11
4r	4BB\	.	(4ddn/	12ddn\L	.
.	.	.	.	12e#X\	.
.	.	.	.	12g#\J	.
(4c#/	4AA\	.	4cc#/	12cc#\L	<
.	.	.	.	12f#\	.
.	.	.	.	12a\J	.
4d#X/	4A\	.	4ccn/	12cc\L	.
.	.	.	.	12f#\	.
.	.	.	.	12a\J	[
=12	=12	=12	=12	=12	=12
!	!	!	!	!LO:TX:t=P:problem= główki nut połączone w belką, błąd wyświetlania	!
!	!	!	!	!LO:N:vis=2	!
4f#/	2E\	.	2b/	12b\L	.
.	.	.	.	12B\	.
.	.	.	.	12g#\J	.
4e/	.	.	.	12r	.
.	.	.	.	12B\L	.
.	.	.	.	12g#\J	.
4d#X/)	4r	.	[4ff#/	12ff#\L	.
.	.	.	.	12a\	.
.	.	.	.	12b\J	.
=13	=13	=13	=13	=13	=13
(4dn/	2.r	.	4ff#/]	12ff#\L	.
.	.	.	.	12g#\	.
.	.	.	.	12b\J	.
4c#/	.	.	4ee/)	12ee\L	.
.	.	.	.	12gn\	.
.	.	.	.	12b\J	.
4cn/	.	.	([4ee/	12ee\L	.
.	.	.	.	12e\	.
.	.	.	.	12a#X\J	.
!!LO:LB:g=original	!	!	!	!
=14	=14	=14	=14	=14	=14
2B/)	2.r	.	4ee/]	12ee\L	.
.	.	.	.	12f#\	.
.	.	.	.	12b\J	.
.	.	.	4dd#X/)	12dd#\L	.
.	.	.	.	(>12f#\	.
.	.	.	.	12b\J)	.
[4f#/	.	.	(4dd#/	12dd#\L	.
.	.	.	.	12a\	.
.	.	.	.	12b\J	.
=15	=15	=15	=15	=15	=15
!	!	!	!	!LO:TX:t=P:problem= główki nut połączone w belką, błąd wyświetlania	!
!	!	!	!	!LO:N:vis=2.	!
4f#/]	2.r	.	[2.ddn/	12ddn\L	.
.	.	.	.	12a\	.
.	.	.	.	12b\J	.
(<4f#/	.	.	.	12r	.
!	!	!	!	!	!LO:HP:b:t=dimin.
.	.	.	.	(>12a\L	>
.	.	.	.	12b\J)	.
4fn/	.	.	.	12r	.
.	.	.	.	(>12a\L	.
.	.	.	.	12b\J)	.
=16	=16	=16	=16	=16	=16
2e/	2.r	.	4dd/]	12dd\L	.
.	.	.	.	12g#\	.
.	.	.	.	12b\J	.
.	.	.	4cc#/	12cc#\L	.
.	.	.	.	12e\	.
.	.	.	.	12g#\J	.
4d/	.	.	4b#X/	12b#\L	.
.	.	.	.	12e\	.
.	.	.	.	12g#\J	.
=17	=17	=17	=17	=17	=17
4c#/)	4r	.	12a/L) 12cc#	4ryy	.
.	.	.	(12A/	.	.
.	.	.	12c#/J)	.	.
!	!	!LO:DY:a	!	!	!
(4EEE/ 4EE	2ryy	p	4r	12r	.
!	!	!LO:HP:a	!	!	!
.	.	<	.	(>12G#\L	.
.	.	.	.	12d\J)	.
4FFF#/ 4FF#	.	.	4r	12r	.
.	.	.	.	(>12A\L	.
.	.	.	.	12d\J)	.
*v	*v	*	*	*	*
!!LO:LB:g=original	!	!	!	!
=18	=18	=18	=18	=18
4AAA/ 4AA	.	4r	12r	.
.	.	.	12c#\L	.
.	.	.	12d\J	.
!	!	!	!	!LO:HP:a
4GGG#/ 4GG#	.	(4e/	12e\L	<
.	.	.	12B\	.
.	.	.	12d\J	.
4FFF#/ 4FF#	.	4f#/	12f#\L	.
.	.	.	12B\	.
.	[	.	12d\J	.
=19	=19	=19	=19	=19
!	!LO:HP:a	!	!	!
4FFFn/ 4FFn	>	4a/	12a\L	.
.	.	.	12B\	.
.	.	.	12d#X\J	.
4EEE/) 4EE	]	4g#/	12g#\L	.
.	.	.	12B\	.
.	.	.	12e\J	.
4r	.	4f#/	12f#\L	[
.	.	.	12A\	.
.	.	.	12d#\J	.
=20	=20	=20	=20	=20
!	!	!	!	!LO:HP:a
4r	.	4fn/	12fn\L	>
.	.	.	12G#\	.
.	.	.	12dn\J	.
!	!LO:HP:a	!	!	!
(4AAA/ 4AA	<	4e/)	12e\L	]
.	.	.	(12A\	.
.	.	.	12c#\J)	.
4BBB/ 4BB	.	4r	12r	.
.	.	.	(12A\L	.
.	.	.	12c#\J)	.
=21	=21	=21	=21	=21
4DD/ 4D	.	4r	12r	.
.	.	.	12A\L	.
.	.	.	12fn\J	.
!	!	!	!	!LO:HP:a
4CC#/ 4C#	.	(4a/	12a\L	<
.	.	.	12A\	.
.	.	.	12e\J	.
4BBB/ 4BB	.	4b/	12b\L	.
.	.	.	12d\	.
.	[	.	12g#\J	.
=22	=22	=22	=22	=22
!	!LO:HP:a	!	!	!
4BBB/ 4BB	>	4dd/	12dd\L	.
.	.	.	12e\	.
.	.	.	12g#\J	.
4AAA/) 4AA	]	4cc#/	12cc#\L	.
.	.	.	12e\	.
.	.	.	12a\J	.
4r	.	4b/	12b\L	[
.	.	.	12d\	.
.	.	.	12g#\J	.
!!LO:LB:g=original	!	!	!	!
=23	=23	=23	=23	=23
!	!	!	!	!LO:HP:a
4r	.	4b/	12b\L	>
.	.	.	12d\	.
.	.	.	12fn\J	.
(4CC#/ 4C#	.	4a/)	12a\L	]
.	.	.	(>12A\	.
.	.	.	12e\J)	.
!	!LO:HP:a:t=cresc.	!	!	!
4DD/ 4D	<	4r	12r	.
.	.	.	(>12A\L	.
.	.	.	12f#X\J)	.
=24	=24	=24	=24	=24
4FF#/ 4F#	.	4r	12r	.
.	.	.	(12d\L	.
.	.	.	12a\J)	.
4EE/ 4E	.	(4cc#/	12cc#\L	.
.	.	.	12gn\	.
.	.	.	12a#X\J	.
4DD/) 4D	.	4dd/	12dd\L	.
.	.	.	12f#\	.
.	.	.	12b\J	.
=25	=25	=25	=25	=25
(4DD/ 4D	.	4ff#/	12ff#\L	.
.	.	.	12gn\	.
.	.	.	12b\J	.
4CC#/ 4C#	.	4ee/	12ee\L	.
.	.	.	12e\	.
.	.	.	12a#X\J	.
4BBB/ 4BB	.	4dd#X/)	12dd#\L	.
.	.	.	12f#\	.
.	.	.	12b\J	.
=26	=26	=26	=26	=26
4BBB#X/ 4BB#X	.	(4ddn/	12dd\L	.
.	.	.	12f#\	.
.	.	.	12an\J	.
!	!LO:HP:a:t=dimin.	!	!	!
4CC#/ 4C#	>	4cc#/	12cc#\L	.
.	.	.	12e#X\	.
.	.	.	12g#\J	.
4FFF#/) 4FF#	.	4b#X/	12b#\L	.
.	.	.	12d#X\	.
.	.	.	12a\J	.
=27	=27	=27	=27	=27
(4AAA/ 4AA	.	4b#X/	12b#\L	.
.	.	.	12d#X\	.
.	.	.	12f#\J	.
2GGG#/ 2GG#	.	4cc#/	12cc#\L	.
.	.	.	12c#\	.
.	.	.	12e#X\J	.
.	.	4f#/	12f#\L	.
.	.	.	12B#X\	.
.	.	.	12d#\J	.
!!LO:LB:g=original	!	!	!	!
=28	=28	=28	=28	=28
2.CCC#/) 2.CC#	.	4a/	12a\L	.
.	.	.	12B#X\	.
.	.	.	12f#\J	.
.	.	4g#/)	12g#\L	.
.	.	.	(>12c#\	.
.	.	.	12e#X\J	.
.	.	4r	8g#\L	.
.	.	.	16e#\L	.
.	.	.	16c#\JJ)	.
=29	=29	=29	=29	=29
!	!	!LO:TX:a:i:t=un poco piu mosso	!	!
!	!	!LO:TX:a:i:t=dolce	!	!
[2.C#\	p	4r	12r	.
.	.	.	(>12e\L	.
.	.	.	12g#\J)	.
.	.	(4ee/	12ee\L	.
.	.	.	12e\	.
.	.	.	12g#\J	.
.	.	4dd#X/	12dd#\L	.
.	.	.	12f#\	.
.	.	.	12g#\J	.
=30	=30	=30	=30	=30
*^	*	*	*	*
!	!	!	!	!	!LO:HP:a
4r	(2C#\]	.	4g#/	12g#\L	<
.	.	.	.	12G#\	.
.	.	.	.	12e\J	.
!	!	!	!LO:TX:b:i:t=dolce	!	!
(4e/	.	.	4a#X/	12a#\L	.
.	.	.	.	12c#\	.
.	.	.	.	12g#\J	.
4d#X/	4D#X\)	.	4b#X/	12b#\L	[
.	.	.	.	12f#\	.
.	.	.	.	12g#\J	.
=31	=31	=31	=31	=31	=31
!	!	!LO:HP:a	!	!	!LO:HP:a
4G#/	[2.E\	<	4dd#X/	12dd#\L	>
.	.	.	.	12e\	.
.	.	.	.	12g#\J	.
4A#X/	.	.	4cc#/)	12cc#\L	]
.	.	.	.	(>12c#\	.
.	.	.	.	12g#\J)	.
4B#X/	.	[[	4r	12r	[
.	.	.	.	(>12d#X\L	.
.	.	.	.	12g#\J)	.
=32	=32	=32	=32	=32	=32
!	!	!LO:HP:a	!	!	!
4d#X/	2E\]	>	4r	12r	.
.	.	.	.	(>12f#\L	.
.	.	.	.	12g#\J)	.
4c#/)	.	]]	4r	12r	.
.	.	.	.	(>12e\L	.
.	.	.	.	12g#\J)	.
4r	4C#\	.	[4ee/	12ee\L	.
.	.	.	.	12e\	.
.	.	.	.	12g#\J	.
!!LO:LB:g=original	!	!	!	!	!
=33	=33	=33	=33	=33	=33
4r	4AA#X\	.	(4ee/]	12ee\L	.
.	.	.	.	12e\	.
.	.	.	.	12gn\J	.
4r	4BB\	.	4ddn/	12ddn\L	.
.	.	.	.	12d\	.
.	.	.	.	12f#\J	.
[4e/	4F#\	.	4a#X/	12a#\L	.
.	.	.	.	12c#\	.
.	.	.	.	12f#\J	.
=34	=34	=34	=34	=34	=34
!	!	!	!	!LO:TX:t=P:problem= główki nut połączone w belką, błąd wyświetlania	!
!	!	!	!	!LO:N:vis=2	!
4e/]	2BB\	.	2b/	12b\L	.
.	.	.	.	12B\	.
.	.	.	.	12f#\J	.
(4dn/	.	.	.	12r	.
.	.	.	.	(>12B\L	.
.	.	.	.	12f#\J)	.
4A#X/	4r	.	[4cc#/	12cc#\L	.
.	.	.	.	12e\	.
.	.	.	.	12f#\J	.
=35	=35	=35	=35	=35	=35
2B/	2.r	.	4cc#/])	12cc#\L	.
.	.	.	.	(>12e\	.
.	.	.	.	12f#\J)	.
.	.	.	(4dd/	12dd\L	.
.	.	.	.	12d\	.
.	.	.	.	12f#\J	.
[4c#/)	.	.	4cc#/	12cc#\L	.
.	.	.	.	12e\	.
.	.	.	.	12f#\J	.
=36	=36	=36	=36	=36	=36
!	!	!	!	!	!LO:HP:a
4c#/]	4r	.	4f#/	12f#\L	<
.	.	.	.	12F#\	.
.	.	.	.	12d\J	.
(4d/	(4BB\	.	4g#X/	12g#X\L	.
.	.	.	.	12B\	.
.	.	.	.	12f#\J	.
4c#/	4C#\)	.	4a#X/	12a#\L	[
.	.	.	.	12e\	.
.	.	.	.	12f#\J	.
=37	=37	=37	=37	=37	=37
!	!	!	!	!	!LO:HP:a
4F#/	[2.D\	.	4cc#/	12cc#\L	>
.	.	.	.	12d\	.
.	.	.	.	12f#\J	.
!	!	!LO:HP:a	!	!	!
4G#/	.	<	4b/)	12b\L	]
.	.	.	.	(>12B\	.
.	.	.	.	12f#\J)	.
4A#X/	.	.	4ryy	12r	.
.	.	.	.	(12c#\L	.
.	.	.	.	12f#\J)	.
!!LO:LB:g=original	!	!	!	!	!
=38	=38	=38	=38	=38	=38
4c#/	2D\]	.	4ryy	12r	>
.	.	.	.	(12e\L	.
.	.	.	.	12f#\J)	.
4B/)	.	[	4ryy	12r	]
.	.	.	.	(12d\L	.
.	.	.	.	12f#\J)	.
4r	(>4BB\	.	([4dd/	12dd\L	.
!	!	!	!LO:TX:b:i:t=cresc. e string. poco a poco	!	!
.	.	.	.	12d\	.
.	.	.	.	12f#\J	.
=39	=39	=39	=39	=39	=39
4r	4GG#\	.	4dd/]	12dd\L	.
.	.	.	.	12d\	.
.	.	.	.	12fn\J	.
4r	4AA\)	.	(4ccn/	12ccn\L	.
.	.	.	.	12cn\	.
.	.	.	.	12e\J	.
*Xtuplet	*	*	*	*	*
[4d/	12d\L	.	4g#/	4ryy	.
.	12E\	.	.	.	.
.	12G#\J	.	.	.	.
=40	=40	=40	=40	=40	=40
4d/]	12d\L	.	2a/))	2ryy	.
.	12Fn\	.	.	.	.
.	12A\J	.	.	.	.
4cn/	12cn\L	.	.	.	.
.	12F\	.	.	.	.
.	12A\J	.	.	.	.
(4G#X/	4F\	.	([4ee-X/	12ee-\L	.
.	.	.	.	12g#X\	.
.	.	.	.	12e-X\J	.
=41	=41	=41	=41	=41	=41
2A/)	2F#X\	.	4ee-yX/]	12ee-yX\L	.
.	.	.	.	12a\	.
.	.	.	.	12e-X\J	.
.	.	.	(4dd/	12dd\L	.
.	.	.	.	12a\	.
.	.	.	.	12d\J	.
[4e-X/	12e-\L	.	4a#X/	4ryy	.
.	12F#\	.	.	.	.
.	12A#X\J	.	.	.	.
=42	=42	=42	=42	=42	=42
4e-/]	12e-X\L	.	2b/))	2ryy	.
.	12Gn\	.	.	.	.
.	12B\J	.	.	.	.
4d/	12d\L	.	.	.	.
.	12G\	.	.	.	.
.	12B\J	.	.	.	.
(4A#X/	4G\	.	([4ffn/	12ffn\L	.
.	.	.	.	12a#X\	.
.	.	.	.	12fn\J	.
!!LO:LB:g=original	!	!	!	!	!
=43	=43	=43	=43	=43	=43
!	!	!	!LO:TX:b:i:t=appassionato	!	!
4B/	2.G#X\	.	4ffny/]	12ffny\L	f
.	.	.	.	12b\	.
.	.	.	.	12fn\J	.
4c#/	.	.	4ee/	12ee\L	.
.	.	.	.	12b\	.
.	.	.	.	12f\J	.
4d/)	.	.	4dd/	12dd\L	.
.	.	.	.	12b\	.
.	.	.	.	12f\J	.
=44	=44	=44	=44	=44	=44
!LO:N:vis=2.	!	!	!	!	!
(4A/	2.A\	.	4ffn/	12ffn\L	.
.	.	.	.	12a\	.
.	.	.	.	12fn\J	.
4e/	.	.	4cc#/	12cc#\L	.
.	.	.	.	12a\	.
.	.	.	.	12f\J	.
4d/	.	.	4dd/)	12dd\L	.
.	.	.	.	12a\	.
.	.	.	.	12f\J	.
=45	=45	=45	=45	=45	=45
!LO:N:vis=2.	!	!	!	!	!
4B-X/	2.B-\	.	(4ffn/	12ffn\L	.
.	.	.	.	12g#\	.
.	.	.	.	12fn\J	.
4c#/	.	.	4ee/	12ee\L	.
.	.	.	.	12g#\	.
.	.	.	.	12f\J	.
4d/	.	.	4dd/	12dd\L	.
.	.	.	.	12g#\	.
.	.	.	.	12f\J	.
=46	=46	=46	=46	=46	=46
!LO:N:vis=2.	!	!	!	!	!
4A/	2.A\	.	4ffn/	12ffn\L	.
.	.	.	.	12fn\	.
.	.	.	.	12a\J	.
4e/	.	.	4cc#/	12cc#\L	.
.	.	.	.	12f\	.
.	.	.	.	12a\J	.
4d/	.	.	4dd/)	12dd\L	.
.	.	.	.	12f\	.
.	.	.	.	12a\J	.
=47	=47	=47	=47	=47	=47
!	!	!	!LO:TX:b:i:t=riten. sempre	!	!
4B/)	4G#X\	.	(4ffn/	12ffn\L	.
.	.	.	.	12b\	.
.	.	.	.	12fn\J	.
4r	2ryy	.	4dd/	12dd\L	.
.	.	.	.	12b\	.
.	.	.	.	12f\J	.
4r	.	.	4b/	12b\L	.
.	.	.	.	12f\	.
.	.	.	.	12d\J	.
*v	*v	*	*	*	*
!!LO:LB:g=original	!	!	!	!
=48	=48	=48	=48	=48
2.r	.	4fn/	12fn\L	.
.	.	.	12d\	.
.	.	.	12B\J	.
.	.	4f/	12f\L	.
.	.	.	12d\	.
.	.	.	12B-X\J	.
.	.	4f/)	12f\L	.
.	.	.	12d\	.
.	.	.	12A\J	.
=49	=49	=49	=49	=49
2.r	.	(4fn/	12fn\L	.
.	.	.	12d\	.
.	.	.	12G#\J	.
.	.	4f/	12f\L	>
.	.	.	12d\	.
.	.	.	12G#\J	.
.	.	4f/	12f\L	.
.	.	.	12d\	.
.	.	.	12G#\J	.
=50	=50	=50	=50	=50
2.r	.	4fn/	12fn\L	.
.	.	.	12d\	.
.	.	.	12G#\J	.
.	.	4e/	12e\L	]
.	.	.	12d\	.
.	.	.	12G#\J	.
.	.	4e/	12e\L	.
.	.	.	12d\	.
.	.	.	12G#\J	.
=51	=51	=51	=51	=51
4r	.	4e/)	12e\L	.
.	.	.	12d\	.
.	.	.	12G#\J	.
(4EEE/ 4EE	pp	4r	12r	.
!	!LO:HP:a	!LO:TX:b:i:t=una corda	!	!
.	<	.	(>12G#\L	.
.	.	.	12d\J)	.
4FFF#/ 4FF#	.	4r	12r	.
.	.	.	(>12A\L	.
.	.	.	12d\J)	.
=52	=52	=52	=52	=52
4AAA/ 4AA	.	4r	12r	.
.	.	.	(>12c#\L	.
.	.	.	12d\J)	.
!	!	!	!	!LO:HP:a
4GGG#/ 4GG#	.	(4e/	12e\L	<
.	.	.	12B\	.
.	.	.	12d\J	.
4FFF#/ 4FF#	[[	4f#/	12f#\L	.
.	.	.	12B\	.
.	.	.	12d\J	.
=53	=53	=53	=53	=53
!	!LO:HP:a	!	!	!
4FFFn/ 4FF#	>	4a/	12a\L	.
.	.	.	12B\	.
.	.	.	12d#X\J	.
4EEE/) 4EE	]	4g#/	12g#\L	.
.	.	.	12B\	.
.	.	.	12e\J	.
4r	.	4f#/	12f#\L	[
.	.	.	12A\	.
.	.	.	12d#\J	.
=54	=54	=54	=54	=54
!	!	!	!	!LO:HP:a
4r	.	4fn/	12fn\L	>
.	.	.	12G#\	.
.	.	.	12dn\J	.
!	!LO:HP:a	!	!	!
(4AAA/ 4AA	<	4e/)	12e\L	]
.	.	.	(>12A\	.
.	.	.	12c#\J)	.
4BBB/ 4BB	.	4r	12r	.
.	.	.	(>12A\L	.
.	.	.	12d\J)	.
=55	=55	=55	=55	=55
4DD/ 4D	.	4r	12r	.
.	.	.	(12A\L	.
.	.	.	12fn\J)	.
4CC#/ 4C#	.	(4a/	12a\L	.
.	.	.	12A\	<
.	.	.	12e\J	.
4BBB/ 4BB	[[	4b/	12b\L	.
.	.	.	12d\	.
.	.	.	12g#\J	.
=56	=56	=56	=56	=56
!	!LO:HP:a	!	!	!
4BBB/ 4BB	>	4dd/	12dd\L	.
.	.	.	12e\	.
.	.	.	12g#\J	.
4AAA/) 4AA	]	4cc#/	12cc#\L	.
.	.	.	12e\	.
.	.	.	12a\J	.
4r	.	4b/	12b\L	.
.	.	.	12d\	[
.	.	.	12g#\J	.
=57	=57	=57	=57	=57
4r	.	4b/	12b\L	>
.	.	.	12d\	.
.	.	.	12fn\J	.
(4CC#/ 4C#	.	4a/)	12a\L	]
.	.	.	(>12A\	.
.	.	.	12e\J)	.
!	!	!LO:TX:b:i:t=con gran espressione	!	!
4DD/ 4D	.	4r	12r	.
.	.	.	(>12A\L	.
.	.	.	12f#X\J)	.
!!LO:LB:g=original	!	!	!	!
=58	=58	=58	=58	=58
4FF#/ 4F#	.	4r	12r	.
.	.	.	(>12d\L	.
.	.	.	12a\J)	.
4EE/ 4E	.	(4cc#/	12cc#\L	.
.	.	.	12gn\	.
.	.	.	12a#X\J	.
4DD/) 4D	.	4dd/	12dd\L	.
.	.	.	12f#\	.
.	.	.	12b\J	.
=59	=59	=59	=59	=59
(4DD/ 4D	.	4ff#/	12ff#\L	.
.	.	.	12gn\	.
.	.	.	12b\J	.
4CC#/ 4C#	.	4ee/	12ee\L	.
.	.	.	12e\	.
.	.	.	12a#X\J	.
4BBB/ 4BB	.	4dd#X/	12dd#\L	.
.	.	.	12f#\	.
.	.	.	12b\J	.
=60	=60	=60	=60	=60
4BBB#X/ 4BB#X	.	4ddn/	12ddn\L	.
.	.	.	12f#\	.
.	.	.	12a\J	.
4CC#/ 4C#	.	4cc#/	12cc#\L	.
.	.	.	12e#X\	.
.	.	.	12g#\J	.
!	!LO:HP:a	!	!	!
4FFF#/ 4FF#	<	4b#X/	12b#\L	.
.	.	.	12d#X\	.
.	.	.	12a\J	.
=61	=61	=61	=61	=61
4FFFn/ 4FFn	[[	4b#X/	12b#\L	.
!	!LO:HP:a	!	!	!
.	>	.	12d#X\	.
.	.	.	12a\J	.
[2EEE/) [2EE	]	4cc#/	12cc#\L	.
.	.	.	12e\	.
.	.	.	12a\J	.
!	!	!	!	!LO:HP:a
.	.	4f#/	12f#\L	<
.	.	.	12A#X\	.
.	.	.	12c#\J	.
!!LO:LB:g=original	!	!	!	!
=62	=62	=62	=62	=62
(2.EEE^>/] 2.EE]	.	4fn/	12fn\L	[
!	!	!	!	!LO:HP:a
.	.	.	12An\	>
.	.	.	12cn\J	.
!	!	!	!LO:TX:t=P:problem= główki nut połączone w belką, błąd wyświetlania	!
!	!	!	!LO:N:vis=2	!
.	.	[2e/)	12e\L	]
.	.	.	12G#\	.
.	.	.	12B\J	.
.	.	.	12d\L	.
.	.	.	12G#\	.
.	.	.	12B\J	.
=63	=63	=63	=63	=63
4AAA/) 4AA	.	12A/L 12c# 12e]	4ryy	.
.	.	(12e/	.	.
.	.	12a/J)	.	.
!	!	!	!	!LO:HP:a
4r	.	(4cc#/	12cc#\L	p <
.	.	.	12e\	.
.	.	.	12a\J	.
4r	.	4dd/	12dd\L	.
.	.	.	12f#\	.
.	.	.	12a\J	.
=64	=64	=64	=64	=64
*^	*	*	*	*
4r	4ryy	.	4ff#/	12ff#\L	.
.	.	.	.	12gn\	.
.	.	.	.	12a\J	.
!	!	!LO:HP:a	!	!	!
4c#/	[2A\	<	4ee/	12ee\L	.
.	.	.	.	12g\	.
.	.	.	.	12a\J	.
4d/	.	.	4dd/)	12dd\L	[
.	.	.	.	12f#\	.
.	.	.	.	12a\J	.
=65	=65	=65	=65	=65	=65
!	!	!	!	!	!LO:HP:a
2f#/	2.A\_	[[	(4cc#/	12cc#\L	>
.	.	.	.	12d#X\	.
.	.	.	.	12a\J	.
.	.	.	4b/	12b\L	.
!	!	!LO:HP:a	!	!	!
.	.	>	.	12d#\	.
.	.	.	.	12a\J	.
4fn/	.	.	[4b/)	12b\L	.
.	.	.	.	12dn\	.
.	.	]	.	12g#\J	]
*	*	*	*v	*v	*
!!LO:LB:g=original	!	!	!	!
=66	=66	=66	=66	=66
4e/	4A\]	.	12c#/L 12b]	.
.	.	.	(12ee/	.
.	.	.	12cc#/J	.
!	!	!LO:DY:a	!	!
!	!	!LO:HP:a	!	!
(4C#/	[2AA\	pp <	12a/L	.
.	.	.	12e/	.
.	.	.	12gn/J	.
4D/	.	[	12f#/L	.
.	.	.	12d/	.
.	.	.	12A/J)	.
=67	=67	=67	=67	=67
*	*	*	*^	*
!	!	!LO:HP:a	!LO:TX:b:i:t=sotto voce	!	!
4F#/	2.AA\]	<	4r	12r	.
.	.	.	.	(>12Gn\L	.
.	.	.	.	12A\J)	.
!	!	!	!	!	!LO:HP:a
4E/	.	.	(4c#/	12c#\L	<
.	.	.	.	12G\	.
.	.	.	.	12A\J	.
4D/	.	[	4d/	12d\L	.
.	.	.	.	12F#\	.
.	.	.	.	12A\J	.
=68	=68	=68	=68	=68	=68
!	!	!	!	!	!LO:HP:a
4AA/)	4AA\	.	4f#/	12f#\L	[ >
.	.	.	.	12G#\	.
.	.	.	.	12d\J	.
(4CC#/	[2AAA\	.	4A/) 4c# 4e	2ryy	]
4DD/	.	.	4r	.	.
*	*	*	*clefF4	*	*
=69	=69	=69	=69	=69	=69
!LO:TX:a:i:t=morendo	!	!	!	!	!
4FFn/	2.AAA\_	.	4r	4ryy	.
4EE/	.	.	([2A/	(4C#\	.
4DD/)	.	.	.	4D\	.
!!LO:LB:g=original	!	!	!	!	!
=70	=70	=70	=70	=70	=70
(2AA/	2.AAA\]	.	2A/]	4Fn\	.
.	.	.	.	4E\	.
4FFn/	.	.	4B/)	4D\)	.
*v	*v	*	*	*	*
=71	=71	=71	=71	=71
2.AAA/) 2.EE	.	2.A/ 2.c#	2.C#\	.
*	*	*v	*v	*
==	==	==	==
*-	*-	*-	*-
!!!system-decoration: {(s1,s2)}
!!!RDF**kern: > = above
!!!RDF**kern: < = below
!!!ENC: Anastazja Marusiak
!!!END: 2022-03-07
!!!ENC: Jan Barakat
!!!END: 2022-03-12
